img/footer.svg

<svg fill="none" height="27" viewBox="0 0 1400 27" width="1400" xmlns="http://www.w3.org/2000/svg" xmlns:xlink="http://www.w3.org/1999/xlink"><clipPath id="a"><path d="m0 0h1400v27h-1400z"/></clipPath><g clip-path="url(#a)" fill="#fff"><path d="m1035.13 18.8557c.07 1.071-.12 2.1429-.54 3.1236-.43.9806-1.08 1.8407-1.9 2.5061-1.74 1.2396-3.83 1.8465-5.95 1.7237-1.7.0084-3.38-.2774-4.99-.8452-.7-.2066-1.36-.5285-1.96-.953l1.45-2.889c1.64.854 3.44 1.3126 5.28 1.3406 1.03.0385 2.05-.2312 2.93-.7759.45-.2638.81-.6454 1.06-1.1045s.37-.9787.36-1.5039c0-.4256-.09-.8466-.28-1.2269-.18-.3804-.46-.7088-.79-.9571-1.15-.6911-2.38-1.2246-3.66-1.587-1.49-.429-2.9-1.1338-4.14-2.0797-.64-.5754-1.15-1.2931-1.49-2.099-.33-.806-.48-1.67918-.44-2.55397-.06-1.00761.13-2.01416.54-2.93011s1.04-1.7129 1.83-2.31996c1.62-1.17588 3.59-1.75909 5.57-1.65621 2.22-.0719 4.43.39875 6.43 1.37302l-.96 2.96171c-1.67-.60283-3.42-.91259-5.19-.91622-.96-.04071-1.91.21633-2.72.73736-.4.26771-.72.63488-.93 1.0663-.22.43142-.32.91261-.31 1.39741 0 .46084.13.91255.37 1.30417.23.3916.57.7076.97.9123 1.29.6415 2.62 1.1598 4 1.5484 1.4.3869 2.7 1.0829 3.81 2.0393.56.5656 1 1.2473 1.29 1.9996.28.7524.41 1.5583.36 2.3641z"/><path d="m1047.52 25.0425c-1.57.7522-3.27 1.1715-4.99 1.2327-2.53 0-3.98-1.0574-4.37-3.1721-.16-1.0013-.23-2.0152-.21-3.0293v-8.1039h-2.75v-2.32783l2.75-.52606.59-4.68982 3.57-.63127v5.32109h4.92l-.41 2.85389h-4.51v8.6975c-.04.6025.05 1.2073.28 1.7658.16.2591.4.466.67.5973s.58.182.88.1462c.93-.0467 1.84-.2362 2.71-.562z"/><path d="m1061.76 25.8904h-3.48l-.31-1.9026c-.59.6966-1.32 1.2576-2.14 1.6464-.81.3889-1.7.5969-2.6.6104-.65.0395-1.3-.0734-1.89-.3302-.6-.2567-1.13-.6504-1.56-1.1506-.78-1.0753-1.17-2.3972-1.1-3.7359-.06-1.0144.22-2.0206.79-2.8533.57-.8326 1.39-1.4423 2.35-1.7287 1.94-.4954 3.94-.7558 5.94-.7759v-.8768c.09-.7892-.1-1.5845-.55-2.2358-.62-.471-1.39-.6811-2.16-.5874-1.43.0596-2.85.2951-4.23.7014l-.72-2.4286c1.99-.9498 4.16-1.45401 6.36-1.47913 2.34 0 3.87.64647 4.61 1.93943.46.8183.68 2.3801.68 4.6854zm-3.99-4.0445v-4.0577c-1.12.0179-2.23.1949-3.31.5261-.52.1559-.99.4881-1.31.944-.33.4559-.49 1.0095-.48 1.5732-.04.3099-.02.6268.07.9256.1.2988.26.5713.47.7956.22.2244.48.3946.77.497s.59.1342.9.0929c1.07-.0967 2.09-.5523 2.89-1.2967"/><path d="m1078.85 25.8904h-4.16v-10.1494c.04-.7859-.05-1.5735-.28-2.3261-.13-.3652-.38-.6745-.7-.8786-.32-.2042-.71-.2915-1.08-.248-1.38.1441-2.68.6672-3.79 1.5133v12.0888h-4.16v-16.77427h3.58l.3 2.21817c2.14-1.71374 4.02-2.57063 5.65-2.57063 2 0 3.34.69265 4.02 2.07793.5 1.3124.71 2.7177.62 4.1208z"/><path d="m1096.43 25.8908h-3.61l-.28-2.0087c-.55.736-1.26 1.3323-2.07 1.7428s-1.7.6242-2.61.6245c-.98.0348-1.96-.2061-2.82-.6968-.86-.4906-1.57-1.2125-2.06-2.0878-.97-1.7733-1.45-3.7872-1.38-5.82-.08-2.0606.35-4.1094 1.24-5.9567.44-.9138 1.13-1.6768 1.98-2.19603.86-.51922 1.84-.77218 2.84-.72802 1.72.10673 3.35.83006 4.61 2.04375v-9.09207l4.16-.63565zm-4.16-4.8625v-7.5069c-.89-.7419-1.99-1.1741-3.13-1.2336-2.14 0-3.2 1.75-3.2 5.25 0 3.4551 1.01 5.182 3.03 5.1809.63-.008 1.26-.1642 1.84-.4569.57-.2928 1.07-.7145 1.46-1.2335z"/><path d="m1112.42 25.8904h-3.47l-.31-1.9026c-.59.6971-1.32 1.2584-2.14 1.6473-.81.3889-1.7.5966-2.6.6095-.65.0397-1.3-.0733-1.89-.33-.6-.2568-1.13-.6505-1.55-1.1508-.79-1.0739-1.18-2.3965-1.11-3.7359-.06-1.0144.22-2.0204.78-2.853.57-.8326 1.4-1.4423 2.35-1.729 1.95-.4956 3.95-.756 5.95-.7759v-.8768c.09-.7892-.1-1.5845-.55-2.2358-.62-.471-1.4-.6811-2.17-.5874-1.43.0597-2.85.2952-4.22.7014l-.73-2.4321c2-.94894 4.17-1.45195 6.37-1.47563 2.34 0 3.87.64647 4.61 1.93943.45.8183.68 2.3801.68 4.6854zm-3.99-4.0445v-4.0577c-1.12.0179-2.23.1949-3.3.5261-.53.1559-.99.4881-1.31.944-.33.4559-.49 1.0095-.48 1.5732-.04.3096-.02.6263.07.9249.1.2986.25.5708.47.7952.21.2243.47.3945.76.4971s.6.1348.9.0939c1.08-.0962 2.1-.5518 2.89-1.2967"/><path d="m1125.22 12.5689c-1.06-.0351-2.11.1499-3.09.5436s-1.87.9879-2.62 1.7465v11.0315h-4.16v-16.77427h3.57l.31 2.78287c.54-.6906 1.18-1.2966 1.89-1.7991 1.2-.87634 2.63-1.344 4.1-1.33623z"/><path d="m1140.94 25.8908h-3.62l-.27-2.0087c-.55.736-1.26 1.3323-2.07 1.7428s-1.7.6242-2.61.6245c-.98.0348-1.96-.2061-2.82-.6968-.86-.4906-1.57-1.2125-2.06-2.0878-.97-1.7733-1.45-3.7872-1.38-5.82-.08-2.0606.34-4.1094 1.24-5.9567.44-.9141 1.13-1.6774 1.98-2.19667.86-.51925 1.84-.772 2.84-.72738 1.72.10647 3.35.82987 4.61 2.04375v-9.09207l4.16-.63565zm-4.16-4.8625v-7.5069c-.89-.7419-1.99-1.1741-3.14-1.2336-2.13 0-3.2 1.75-3.19 5.25 0 3.4551 1.01 5.182 3.02 5.1809.64-.0082 1.27-.1644 1.84-.4572.58-.2928 1.08-.7144 1.47-1.2332"/><path d="m1166.98 19.5133c.08 1.234-.24 2.4611-.91 3.4882-.68 1.027-1.66 1.7958-2.81 2.1853-1.17.4676-3.37.7014-6.6.7014h-5.64v-23.50343h6.36c2.91 0 4.95.24637 6.12.73911 1.97.84812 2.96 2.55197 2.96 5.11154 0 3.16978-1.59 5.02558-4.78 5.56748 3.53.3776 5.3 2.281 5.3 5.7104zm-4.71-10.78513c.05-.51602-.03-1.0377-.24-1.5092-.22-.47151-.55-.87509-.97-1.16757-1.13-.47299-2.36-.66698-3.58-.56639h-2.2v6.91069h1.76c1.24.0843 2.48-.1084 3.64-.5647 1.06-.5143 1.58-1.5486 1.59-3.10283zm.27 10.23803c.07-.6615-.07-1.3285-.4-1.9025-.33-.5739-.83-1.0244-1.42-1.2846-1.05-.322-2.14-.4538-3.24-.3893h-2.2v7.4008h1.59c1.33.0942 2.68-.0745 3.95-.4971 1.15-.5664 1.72-1.677 1.72-3.3317"/><path d="m1181.6 25.8904h-3.48l-.31-1.9026c-.59.6966-1.32 1.2576-2.14 1.6464-.81.3889-1.7.5969-2.6.6104-.65.0395-1.3-.0734-1.89-.3302-.6-.2567-1.13-.6504-1.56-1.1506-.78-1.0749-1.17-2.3971-1.1-3.7359-.06-1.0139.22-2.0196.78-2.8522.57-.8326 1.4-1.4425 2.35-1.7298 1.95-.4955 3.95-.7559 5.95-.7759v-.8768c.09-.7891-.11-1.5837-.55-2.2358-.62-.4701-1.39-.6801-2.16-.5874-1.44.0597-2.85.2952-4.23.7014l-.73-2.4321c2-.94875 4.17-1.45175 6.37-1.47563 2.34 0 3.87.64647 4.61 1.93943.45.8183.68 2.3801.69 4.6854zm-3.99-4.0445v-4.0577c-1.12.0181-2.23.1951-3.31.5261-.52.1559-.99.4881-1.31.944-.33.4559-.49 1.0095-.48 1.5732-.04.3096-.02.6263.07.9249.1.2986.26.5708.47.7952.21.2243.48.3945.77.4971.28.1026.59.1348.9.0939 1.07-.0962 2.09-.5518 2.89-1.2967"/><path d="m1199.38 25.8904h-4.16v-10.1494c.04-.786-.05-1.5734-.28-2.3261-.13-.3648-.38-.6736-.7-.8776-.33-.204-.71-.2916-1.09-.249-1.37.1448-2.68.6678-3.78 1.5133v12.0888h-4.16v-16.77427h3.57l.31 2.21817c2.14-1.71374 4.02-2.57063 5.64-2.57063 2 0 3.34.69265 4.03 2.07793.49 1.3124.7 2.7176.62 4.1208z"/><path d="m1203.02 1.71398v24.17502h4.17v-7.8909l5.95 7.8909h4.78l-6.88-8.7764 6.43-7.99609h-4.41l-5.87 7.47009v-15.50652z"/><path d="m1250.37 0-3.85 4.98617h3.52l5.44-4.98617zm-8.26 6.14525-5.57 20.40055h14.65l1.21-4.4373h-9.27l1.03-3.7762h6.29l1.17-4.304h-6.29l.91-3.3055h8.81l1.25-4.57755z"/><path d="m1267.14 6.14648h7.45c4.25 0 8.35.91096 6.71 6.94662-1.65 6.0357-6.61 6.9501-10.51 6.9501h-2.12l-1.78 6.5039h-5.32zm4.99 9.70672c2.5 0 3.46-1.0767 3.88-2.6216.42-1.5448.05-2.6215-2.45-2.6215h-2.32l-1.43 5.2431z"/><path d="m1281.97 16.3493c2.04-7.47263 7.87-10.58953 12.67-10.58953 4.79 0 8.91 3.11427 6.87 10.58693-2.04 7.4727-7.86 10.5887-12.65 10.5887-4.81 0-8.93-3.1143-6.89-10.5861zm14.17 0c1.03-3.7499.06-6.0356-2.74-6.0356-2.82 0-5.03 2.2857-6.06 6.0356-1.02 3.75-.09 6.1742 2.73 6.1742 2.79 0 5.05-2.4242 6.07-6.1742"/><path d="m1301.33 22.0566 4.67-2.5426c.3.9333.89 1.7404 1.68 2.2982.79.5577 1.74.8354 2.7.7906 1.64 0 3.01-.4953 3.36-1.7658.35-1.2941-1.1-1.793-2.93-2.2883-3.02-.8487-7.12-1.7036-5.85-6.3373 1.14-4.162 4.83-6.44773 9.35-6.44773 4.22 0 6.19 2.01043 7.23 3.9963l-4.42 3.03093c-.41-.7487-.99-1.3779-1.7-1.8268-.72-.4489-1.53-.7023-2.36-.7359-1.53 0-2.46.526-2.72 1.4905-.37 1.3476 1.05 1.8429 2.88 2.3392 3.04.797 7.12 1.8184 5.86 6.396-.89 3.2572-4 6.4828-10.13 6.4828-4.54 0-6.69-2.0955-7.62-4.8801"/><path d="m1320.13 22.0566 4.67-2.5426c.3.9333.89 1.7404 1.68 2.2982.79.5577 1.73.8354 2.69.7906 1.64 0 3.01-.4953 3.36-1.7658.35-1.2941-1.1-1.793-2.93-2.2883-3.01-.8487-7.11-1.7036-5.85-6.3373 1.14-4.162 4.83-6.44773 9.35-6.44773 4.22 0 6.2 2.01043 7.24 3.9963l-4.43 3.03093c-.4-.7487-.99-1.3779-1.7-1.8268s-1.52-.7023-2.36-.7359c-1.53 0-2.45.526-2.72 1.4905-.37 1.3476 1.06 1.8429 2.89 2.3392 3.03.797 7.11 1.8184 5.86 6.396-.89 3.2572-4.01 6.4828-10.14 6.4828-4.54 0-6.68-2.0955-7.61-4.8801"/><path d="m1349.52 0-3.86 4.98617h3.52l5.44-4.98617zm-4.69 6.14525-5.57 20.40055h5.37l5.58-20.40055z"/><path d="m1366.15 6.14648-7.82 13.25932h-.05l-.36-13.25932h-5.43l1.18 20.48392h5.11l12.37-20.48392z"/><path d="m1373.28 6.14648-5.57 20.40062h14.65l1.21-4.4373h-9.27l1.02-3.7763h6.3l1.17-4.3023h-6.29l.9-3.3071h8.82l1.26-4.57762z"/><path d="m1390.62 6.14648-5.57 20.40062h13.74l1.21-4.4373h-8.36l4.35-15.96332z"/><path d="m14.1489 2.38281-14.1489 24.61609h988.666v-24.61609z"/></g></svg>

<svg width="1400" height="27" viewBox="0 0 1400 27" fill="none" xmlns="http://www.w3.org/2000/svg">
<g clip-path="url(#clip0_382_9018)">
<path d="M1035.13 18.8557C1035.2 19.9267 1035.01 20.9986 1034.59 21.9793C1034.16 22.9599 1033.51 23.82 1032.69 24.4854C1030.95 25.725 1028.86 26.3319 1026.74 26.2091C1025.04 26.2175 1023.36 25.9317 1021.75 25.3639C1021.05 25.1573 1020.39 24.8354 1019.79 24.4109L1021.24 21.5219C1022.88 22.3759 1024.68 22.8345 1026.52 22.8625C1027.55 22.901 1028.57 22.6313 1029.45 22.0866C1029.9 21.8228 1030.26 21.4412 1030.51 20.9821C1030.76 20.523 1030.88 20.0034 1030.87 19.4782C1030.87 19.0526 1030.78 18.6316 1030.59 18.2513C1030.41 17.8709 1030.13 17.5425 1029.8 17.2942C1028.65 16.6031 1027.42 16.0696 1026.14 15.7072C1024.65 15.2782 1023.24 14.5734 1022 13.6275C1021.36 13.0521 1020.85 12.3344 1020.51 11.5285C1020.18 10.7225 1020.03 9.84932 1020.07 8.97453C1020.01 7.96692 1020.2 6.96037 1020.61 6.04442C1021.02 5.12847 1021.65 4.33152 1022.44 3.72446C1024.06 2.54858 1026.03 1.96537 1028.01 2.06825C1030.23 1.99635 1032.44 2.467 1034.44 3.44127L1033.48 6.40298C1031.81 5.80015 1030.06 5.49039 1028.29 5.48676C1027.33 5.44605 1026.38 5.70309 1025.57 6.22412C1025.17 6.49183 1024.85 6.859 1024.64 7.29042C1024.42 7.72184 1024.32 8.20303 1024.33 8.68783C1024.33 9.14867 1024.46 9.60038 1024.7 9.992C1024.93 10.3836 1025.27 10.6996 1025.67 10.9043C1026.96 11.5458 1028.29 12.0641 1029.67 12.4527C1031.07 12.8396 1032.37 13.5356 1033.48 14.492C1034.04 15.0576 1034.48 15.7393 1034.77 16.4916C1035.05 17.244 1035.18 18.0499 1035.13 18.8557Z" fill="white"/>
<path d="M1047.52 25.0425C1045.95 25.7947 1044.25 26.214 1042.53 26.2752C1040 26.2752 1038.55 25.2178 1038.16 23.1031C1038 22.1018 1037.93 21.0879 1037.95 20.0738V11.9699H1035.2V9.64207L1037.95 9.11601L1038.54 4.42619L1042.11 3.79492V9.11601H1047.03L1046.62 11.9699H1042.11V20.6674C1042.07 21.2699 1042.16 21.8747 1042.39 22.4332C1042.55 22.6923 1042.79 22.8992 1043.06 23.0305C1043.33 23.1618 1043.64 23.2125 1043.94 23.1767C1044.87 23.13 1045.78 22.9405 1046.65 22.6147L1047.52 25.0425Z" fill="white"/>
<path d="M1061.76 25.8904H1058.28L1057.97 23.9878C1057.38 24.6844 1056.65 25.2454 1055.83 25.6342C1055.02 26.0231 1054.13 26.2311 1053.23 26.2446C1052.58 26.2841 1051.93 26.1712 1051.34 25.9144C1050.74 25.6577 1050.21 25.264 1049.78 24.7638C1049 23.6885 1048.61 22.3666 1048.68 21.0279C1048.62 20.0135 1048.9 19.0073 1049.47 18.1746C1050.04 17.342 1050.86 16.7323 1051.82 16.4459C1053.76 15.9505 1055.76 15.6901 1057.76 15.67V14.7932C1057.85 14.004 1057.66 13.2087 1057.21 12.5574C1056.59 12.0864 1055.82 11.8763 1055.05 11.97C1053.62 12.0296 1052.2 12.2651 1050.82 12.6714L1050.1 10.2428C1052.09 9.293 1054.26 8.78879 1056.46 8.76367C1058.8 8.76367 1060.33 9.41014 1061.07 10.7031C1061.53 11.5214 1061.75 13.0832 1061.75 15.3885L1061.76 25.8904ZM1057.77 21.8459V17.7882C1056.65 17.8061 1055.54 17.9831 1054.46 18.3143C1053.94 18.4702 1053.47 18.8024 1053.15 19.2583C1052.82 19.7142 1052.66 20.2678 1052.67 20.8315C1052.63 21.1414 1052.65 21.4583 1052.74 21.7571C1052.84 22.0559 1053 22.3284 1053.21 22.5527C1053.43 22.7771 1053.69 22.9473 1053.98 23.0497C1054.27 23.1521 1054.57 23.1839 1054.88 23.1426C1055.95 23.0459 1056.97 22.5903 1057.77 21.8459" fill="white"/>
<path d="M1078.85 25.8904H1074.69V15.741C1074.73 14.9551 1074.64 14.1675 1074.41 13.4149C1074.28 13.0497 1074.03 12.7404 1073.71 12.5363C1073.39 12.3321 1073 12.2448 1072.63 12.2883C1071.25 12.4324 1069.95 12.9555 1068.84 13.8016V25.8904H1064.68V9.11613H1068.26L1068.56 11.3343C1070.7 9.62056 1072.58 8.76367 1074.21 8.76367C1076.21 8.76367 1077.55 9.45632 1078.23 10.8416C1078.73 12.154 1078.94 13.5593 1078.85 14.9624L1078.85 25.8904Z" fill="white"/>
<path d="M1096.43 25.8908H1092.82L1092.54 23.8821C1091.99 24.6181 1091.28 25.2144 1090.47 25.6249C1089.66 26.0354 1088.77 26.2491 1087.86 26.2494C1086.88 26.2842 1085.9 26.0433 1085.04 25.5526C1084.18 25.062 1083.47 24.3401 1082.98 23.4648C1082.01 21.6915 1081.53 19.6776 1081.6 17.6448C1081.52 15.5842 1081.95 13.5354 1082.84 11.6881C1083.28 10.7743 1083.97 10.0113 1084.82 9.49207C1085.68 8.97285 1086.66 8.71989 1087.66 8.76405C1089.38 8.87078 1091.01 9.59411 1092.27 10.8078V1.71573L1096.43 1.08008V25.8908ZM1092.27 21.0283V13.5214C1091.38 12.7795 1090.28 12.3473 1089.14 12.2878C1087 12.2878 1085.94 14.0378 1085.94 17.5378C1085.94 20.9929 1086.95 22.7198 1088.97 22.7187C1089.6 22.7107 1090.23 22.5545 1090.81 22.2618C1091.38 21.969 1091.88 21.5473 1092.27 21.0283Z" fill="white"/>
<path d="M1112.42 25.8904H1108.95L1108.64 23.9878C1108.05 24.6849 1107.32 25.2462 1106.5 25.6351C1105.69 26.024 1104.8 26.2317 1103.9 26.2446C1103.25 26.2843 1102.6 26.1713 1102.01 25.9146C1101.41 25.6578 1100.88 25.2641 1100.46 24.7638C1099.67 23.6899 1099.28 22.3673 1099.35 21.0279C1099.29 20.0135 1099.57 19.0075 1100.13 18.1749C1100.7 17.3423 1101.53 16.7326 1102.48 16.4459C1104.43 15.9503 1106.43 15.6899 1108.43 15.67V14.7932C1108.52 14.004 1108.33 13.2087 1107.88 12.5574C1107.26 12.0864 1106.48 11.8763 1105.71 11.97C1104.28 12.0297 1102.86 12.2652 1101.49 12.6714L1100.76 10.2393C1102.76 9.29036 1104.93 8.78735 1107.13 8.76367C1109.47 8.76367 1111 9.41014 1111.74 10.7031C1112.19 11.5214 1112.42 13.0832 1112.42 15.3885L1112.42 25.8904ZM1108.43 21.8459V17.7882C1107.31 17.8061 1106.2 17.9831 1105.13 18.3143C1104.6 18.4702 1104.14 18.8024 1103.82 19.2583C1103.49 19.7142 1103.33 20.2678 1103.34 20.8315C1103.3 21.1411 1103.32 21.4578 1103.41 21.7564C1103.51 22.055 1103.66 22.3272 1103.88 22.5516C1104.09 22.7759 1104.35 22.9461 1104.64 23.0487C1104.93 23.1513 1105.24 23.1835 1105.54 23.1426C1106.62 23.0464 1107.64 22.5908 1108.43 21.8459" fill="white"/>
<path d="M1125.22 12.5689C1124.16 12.5338 1123.11 12.7188 1122.13 13.1125C1121.15 13.5062 1120.26 14.1004 1119.51 14.859V25.8905H1115.35V9.11623H1118.92L1119.23 11.8991C1119.77 11.2085 1120.41 10.6025 1121.12 10.1C1122.32 9.22366 1123.75 8.756 1125.22 8.76377V12.5689Z" fill="white"/>
<path d="M1140.94 25.8908H1137.32L1137.05 23.8821C1136.5 24.6181 1135.79 25.2144 1134.98 25.6249C1134.17 26.0354 1133.28 26.2491 1132.37 26.2494C1131.39 26.2842 1130.41 26.0433 1129.55 25.5526C1128.69 25.062 1127.98 24.3401 1127.49 23.4648C1126.52 21.6915 1126.04 19.6776 1126.11 17.6448C1126.03 15.5842 1126.45 13.5354 1127.35 11.6881C1127.79 10.774 1128.48 10.0107 1129.33 9.49143C1130.19 8.97218 1131.17 8.71943 1132.17 8.76405C1133.89 8.87052 1135.52 9.59392 1136.78 10.8078V1.71573L1140.94 1.08008V25.8908ZM1136.78 21.0283V13.5214C1135.89 12.7795 1134.79 12.3473 1133.64 12.2878C1131.51 12.2878 1130.44 14.0378 1130.45 17.5378C1130.45 20.9929 1131.46 22.7198 1133.47 22.7187C1134.11 22.7105 1134.74 22.5543 1135.31 22.2615C1135.89 21.9687 1136.39 21.5471 1136.78 21.0283" fill="white"/>
<path d="M1166.98 19.5133C1167.06 20.7473 1166.74 21.9744 1166.07 23.0015C1165.39 24.0285 1164.41 24.7973 1163.26 25.1868C1162.09 25.6544 1159.89 25.8882 1156.66 25.8882H1151.02V2.38477H1157.38C1160.29 2.38477 1162.33 2.63114 1163.5 3.12388C1165.47 3.972 1166.46 5.67585 1166.46 8.23542C1166.46 11.4052 1164.87 13.261 1161.68 13.8029C1165.21 14.1805 1166.98 16.0839 1166.98 19.5133ZM1162.27 8.72817C1162.32 8.21215 1162.24 7.69047 1162.03 7.21897C1161.81 6.74746 1161.48 6.34388 1161.06 6.0514C1159.93 5.57841 1158.7 5.38442 1157.48 5.48501H1155.28V12.3957H1157.04C1158.28 12.48 1159.52 12.2873 1160.68 11.831C1161.74 11.3167 1162.26 10.2824 1162.27 8.72817ZM1162.54 18.9662C1162.61 18.3047 1162.47 17.6377 1162.14 17.0637C1161.81 16.4898 1161.31 16.0393 1160.72 15.7791C1159.67 15.4571 1158.58 15.3253 1157.48 15.3898H1155.28V22.7906H1156.87C1158.2 22.8848 1159.55 22.7161 1160.82 22.2935C1161.97 21.7271 1162.54 20.6165 1162.54 18.9618" fill="white"/>
<path d="M1181.6 25.8904H1178.12L1177.81 23.9878C1177.22 24.6844 1176.49 25.2454 1175.67 25.6342C1174.86 26.0231 1173.97 26.2311 1173.07 26.2446C1172.42 26.2841 1171.77 26.1712 1171.18 25.9144C1170.58 25.6577 1170.05 25.264 1169.62 24.7638C1168.84 23.6889 1168.45 22.3667 1168.52 21.0279C1168.46 20.014 1168.74 19.0083 1169.3 18.1757C1169.87 17.3431 1170.7 16.7332 1171.65 16.4459C1173.6 15.9504 1175.6 15.69 1177.6 15.67V14.7932C1177.69 14.0041 1177.49 13.2095 1177.05 12.5574C1176.43 12.0873 1175.66 11.8773 1174.89 11.97C1173.45 12.0297 1172.04 12.2652 1170.66 12.6714L1169.93 10.2393C1171.93 9.29055 1174.1 8.78755 1176.3 8.76367C1178.64 8.76367 1180.17 9.41014 1180.91 10.7031C1181.36 11.5214 1181.59 13.0832 1181.6 15.3885V25.8904ZM1177.61 21.8459V17.7882C1176.49 17.8063 1175.38 17.9833 1174.3 18.3143C1173.78 18.4702 1173.31 18.8024 1172.99 19.2583C1172.66 19.7142 1172.5 20.2678 1172.51 20.8315C1172.47 21.1411 1172.49 21.4578 1172.58 21.7564C1172.68 22.055 1172.84 22.3272 1173.05 22.5516C1173.26 22.7759 1173.53 22.9461 1173.82 23.0487C1174.1 23.1513 1174.41 23.1835 1174.72 23.1426C1175.79 23.0464 1176.81 22.5908 1177.61 21.8459" fill="white"/>
<path d="M1199.38 25.8904H1195.22V15.741C1195.26 14.955 1195.17 14.1676 1194.94 13.4149C1194.81 13.0501 1194.56 12.7413 1194.24 12.5373C1193.91 12.3333 1193.53 12.2457 1193.15 12.2883C1191.78 12.4331 1190.47 12.9561 1189.37 13.8016V25.8904H1185.21V9.11613H1188.78L1189.09 11.3343C1191.23 9.62056 1193.11 8.76367 1194.73 8.76367C1196.73 8.76367 1198.07 9.45632 1198.76 10.8416C1199.25 12.154 1199.46 13.5592 1199.38 14.9624L1199.38 25.8904Z" fill="white"/>
<path d="M1203.02 1.71398V25.889H1207.19V17.9981L1213.14 25.889H1217.92L1211.04 17.1126L1217.47 9.11651H1213.06L1207.19 16.5866V1.08008L1203.02 1.71398Z" fill="white"/>
<path d="M1250.37 0L1246.52 4.98617H1250.04L1255.48 0H1250.37ZM1242.11 6.14525L1236.54 26.5458H1251.19L1252.4 22.1085H1243.13L1244.16 18.3323H1250.45L1251.62 14.0283H1245.33L1246.24 10.7228H1255.05L1256.3 6.14525H1242.11Z" fill="white"/>
<path d="M1267.14 6.14648H1274.59C1278.84 6.14648 1282.94 7.05744 1281.3 13.0931C1279.65 19.1288 1274.69 20.0432 1270.79 20.0432H1268.67L1266.89 26.5471H1261.57L1267.14 6.14648ZM1272.13 15.8532C1274.63 15.8532 1275.59 14.7765 1276.01 13.2316C1276.43 11.6868 1276.06 10.6101 1273.56 10.6101H1271.24L1269.81 15.8532H1272.13Z" fill="white"/>
<path d="M1281.97 16.3493C1284.01 8.87667 1289.84 5.75977 1294.64 5.75977C1299.43 5.75977 1303.55 8.87404 1301.51 16.3467C1299.47 23.8194 1293.65 26.9354 1288.86 26.9354C1284.05 26.9354 1279.93 23.8211 1281.97 16.3493ZM1296.14 16.3493C1297.17 12.5994 1296.2 10.3137 1293.4 10.3137C1290.58 10.3137 1288.37 12.5994 1287.34 16.3493C1286.32 20.0993 1287.25 22.5235 1290.07 22.5235C1292.86 22.5235 1295.12 20.0993 1296.14 16.3493" fill="white"/>
<path d="M1301.33 22.0566L1306 19.514C1306.3 20.4473 1306.89 21.2544 1307.68 21.8122C1308.47 22.3699 1309.42 22.6476 1310.38 22.6028C1312.02 22.6028 1313.39 22.1075 1313.74 20.837C1314.09 19.5429 1312.64 19.044 1310.81 18.5487C1307.79 17.7 1303.69 16.8451 1304.96 12.2114C1306.1 8.0494 1309.79 5.76367 1314.31 5.76367C1318.53 5.76367 1320.5 7.7741 1321.54 9.75997L1317.12 12.7909C1316.71 12.0422 1316.13 11.413 1315.42 10.9641C1314.7 10.5152 1313.89 10.2618 1313.06 10.2282C1311.53 10.2282 1310.6 10.7542 1310.34 11.7187C1309.97 13.0663 1311.39 13.5616 1313.22 14.0579C1316.26 14.8549 1320.34 15.8763 1319.08 20.4539C1318.19 23.7111 1315.08 26.9367 1308.95 26.9367C1304.41 26.9367 1302.26 24.8412 1301.33 22.0566" fill="white"/>
<path d="M1320.13 22.0566L1324.8 19.514C1325.1 20.4473 1325.69 21.2544 1326.48 21.8122C1327.27 22.3699 1328.21 22.6476 1329.17 22.6028C1330.81 22.6028 1332.18 22.1075 1332.53 20.837C1332.88 19.5429 1331.43 19.044 1329.6 18.5487C1326.59 17.7 1322.49 16.8451 1323.75 12.2114C1324.89 8.0494 1328.58 5.76367 1333.1 5.76367C1337.32 5.76367 1339.3 7.7741 1340.34 9.75997L1335.91 12.7909C1335.51 12.0422 1334.92 11.413 1334.21 10.9641C1333.5 10.5152 1332.69 10.2618 1331.85 10.2282C1330.32 10.2282 1329.4 10.7542 1329.13 11.7187C1328.76 13.0663 1330.19 13.5616 1332.02 14.0579C1335.05 14.8549 1339.13 15.8763 1337.88 20.4539C1336.99 23.7111 1333.87 26.9367 1327.74 26.9367C1323.2 26.9367 1321.06 24.8412 1320.13 22.0566" fill="white"/>
<path d="M1349.52 0L1345.66 4.98617H1349.18L1354.62 0H1349.52ZM1344.83 6.14525L1339.26 26.5458H1344.63L1350.21 6.14525H1344.83Z" fill="white"/>
<path d="M1366.15 6.14648L1358.33 19.4058H1358.28L1357.92 6.14648H1352.49L1353.67 26.6304H1358.78L1371.15 6.14648H1366.15Z" fill="white"/>
<path d="M1373.28 6.14648L1367.71 26.5471H1382.36L1383.57 22.1098H1374.3L1375.32 18.3335H1381.62L1382.79 14.0312H1376.5L1377.4 10.7241H1386.22L1387.48 6.14648H1373.28Z" fill="white"/>
<path d="M1390.62 6.14648L1385.05 26.5471H1398.79L1400 22.1098H1391.64L1395.99 6.14648H1390.62Z" fill="white"/>
<path d="M14.1489 2.38281L0 26.9989H988.666V2.38281H14.1489Z" fill="white"/>
</g>
<defs>
<clipPath id="clip0_382_9018">
<rect width="1400" height="27" fill="white"/>
</clipPath>
</defs>
</svg>
